X:1
T:Tim Maloney's
L:1/8
M:4/4
I:linebreak $
K:G
V:1 treble 
V:1
 DG (3GFG Bd d2 | dedB gedB | G2 BG dGBG | c2 Bc AGEG | DG (3GFG Bd d2 | dedB d2 gf |$ %6
 (3ege ed Bdef | gedB AGEG :| dg (3gfg bg (3gfg | dBBA Bdef | g2 bg abge |$ d2 BG AGEG | %12
 dg (3gfg bg (3gfg | dBBA B2 gf | (3ege ed Bdef | gedB AGEG :| %16
